src/pos-icons/angle-right.svg

<svg height="24" viewBox="0 0 24 24" width="24" xmlns="http://www.w3.org/2000/svg"><path d="m5 4h2v7h6v6h7v2h-15zm2 13h4v-4h-4z"/></svg>

<?xml version="1.0" encoding="UTF-8"?><!DOCTYPE svg PUBLIC "-//W3C//DTD SVG 1.1//EN" "http://www.w3.org/Graphics/SVG/1.1/DTD/svg11.dtd"><svg xmlns="http://www.w3.org/2000/svg" xmlns:xlink="http://www.w3.org/1999/xlink" version="1.1" id="mdi-angle-right" width="24" height="24" viewBox="0 0 24 24"><path d="M5,4H7V11H13V17H20V19H5V4M7,17H11V13H7V17Z" /></svg>
